src/images/svg/symbols/crash-indices-1000-new.svg

<svg width="33" height="32" viewBox="0 0 33 32" fill="none" xmlns="http://www.w3.org/2000/svg">
<path d="M0.333984 14.5856L7.33394 7.58568L10.3339 10.5857L17.3339 3.58568L20.3339 6.58568L26.3339 0.585684V3.41411L20.3339 9.41411L17.3339 6.41411L10.3339 13.4141L7.33394 10.4141L0.333984 17.4141V14.5856Z" fill="#85ACB0"/>
<path d="M27.3341 22L32.0412 17.2929L30.627 15.8787L28.3341 18.1716L28.334 9.53674e-06H26.9198L26.3341 0.585752L26.3341 18.1716L24.0412 15.8787L22.627 17.2929L27.3341 22Z" fill="#FF444F"/>
<path d="M0.333984 24C0.333984 22.8954 1.22941 22 2.33398 22H22.334C23.4386 22 24.334 22.8954 24.334 24V30C24.334 31.1046 23.4386 32 22.334 32H2.33398C1.22941 32 0.333984 31.1046 0.333984 30V24Z" fill="#0E0E0E"/>
<path d="M3.49153 30.0003V29.0323H4.99553V25.2883H4.92353L3.78753 26.7763L3.01953 26.1763L4.35553 24.4163H6.19553V29.0323H7.37953V30.0003H3.49153Z" fill="white"/>
<path d="M9.93641 30.0963C9.20574 30.0963 8.66441 29.843 8.31241 29.3363C7.96041 28.8296 7.78441 28.1203 7.78441 27.2083C7.78441 26.2963 7.96041 25.587 8.31241 25.0803C8.66441 24.5736 9.20574 24.3203 9.93641 24.3203C10.6671 24.3203 11.2084 24.5736 11.5604 25.0803C11.9124 25.587 12.0884 26.2963 12.0884 27.2083C12.0884 28.1203 11.9124 28.8296 11.5604 29.3363C11.2084 29.843 10.6671 30.0963 9.93641 30.0963ZM9.93641 29.0803C10.2564 29.0803 10.4777 28.963 10.6004 28.7283C10.7231 28.4936 10.7844 28.163 10.7844 27.7363V26.6803C10.7844 26.2536 10.7231 25.923 10.6004 25.6883C10.4777 25.4536 10.2564 25.3363 9.93641 25.3363C9.61641 25.3363 9.39507 25.4536 9.27241 25.6883C9.14974 25.923 9.08841 26.2536 9.08841 26.6803V27.7363C9.08841 28.163 9.14974 28.4936 9.27241 28.7283C9.39507 28.963 9.61641 29.0803 9.93641 29.0803Z" fill="white"/>
<path d="M14.7333 30.0963C14.0026 30.0963 13.4613 29.843 13.1093 29.3363C12.7573 28.8296 12.5813 28.1203 12.5813 27.2083C12.5813 26.2963 12.7573 25.587 13.1093 25.0803C13.4613 24.5736 14.0026 24.3203 14.7333 24.3203C15.4639 24.3203 16.0053 24.5736 16.3573 25.0803C16.7093 25.587 16.8853 26.2963 16.8853 27.2083C16.8853 28.1203 16.7093 28.8296 16.3573 29.3363C16.0053 29.843 15.4639 30.0963 14.7333 30.0963ZM14.7333 29.0803C15.0533 29.0803 15.2746 28.963 15.3973 28.7283C15.5199 28.4936 15.5813 28.163 15.5813 27.7363V26.6803C15.5813 26.2536 15.5199 25.923 15.3973 25.6883C15.2746 25.4536 15.0533 25.3363 14.7333 25.3363C14.4133 25.3363 14.1919 25.4536 14.0693 25.6883C13.9466 25.923 13.8853 26.2536 13.8853 26.6803V27.7363C13.8853 28.163 13.9466 28.4936 14.0693 28.7283C14.1919 28.963 14.4133 29.0803 14.7333 29.0803Z" fill="white"/>
<path d="M19.5302 30.0963C18.7995 30.0963 18.2582 29.843 17.9062 29.3363C17.5542 28.8296 17.3782 28.1203 17.3782 27.2083C17.3782 26.2963 17.5542 25.587 17.9062 25.0803C18.2582 24.5736 18.7995 24.3203 19.5302 24.3203C20.2608 24.3203 20.8022 24.5736 21.1542 25.0803C21.5062 25.587 21.6822 26.2963 21.6822 27.2083C21.6822 28.1203 21.5062 28.8296 21.1542 29.3363C20.8022 29.843 20.2608 30.0963 19.5302 30.0963ZM19.5302 29.0803C19.8502 29.0803 20.0715 28.963 20.1942 28.7283C20.3168 28.4936 20.3782 28.163 20.3782 27.7363V26.6803C20.3782 26.2536 20.3168 25.923 20.1942 25.6883C20.0715 25.4536 19.8502 25.3363 19.5302 25.3363C19.2102 25.3363 18.9888 25.4536 18.8662 25.6883C18.7435 25.923 18.6822 26.2536 18.6822 26.6803V27.7363C18.6822 28.163 18.7435 28.4936 18.8662 28.7283C18.9888 28.963 19.2102 29.0803 19.5302 29.0803Z" fill="white"/>
</svg>

<svg width="33" height="32" fill="none" xmlns="http://www.w3.org/2000/svg"><path d="m.334 14.586 7-7 3 3 7-7 3 3 6-6v2.828l-6 6-3-3-7 7-3-3-7 7v-2.828Z" fill="#85ACB0"/><path d="m27.334 22 4.707-4.707-1.414-1.414-2.293 2.293V0H26.92l-.586.586v17.586l-2.293-2.293-1.414 1.414L27.334 22Z" fill="#FF444F"/><path d="M.334 24a2 2 0 0 1 2-2h20a2 2 0 0 1 2 2v6a2 2 0 0 1-2 2h-20a2 2 0 0 1-2-2v-6Z" fill="#0E0E0E"/><path d="M3.492 30v-.968h1.504v-3.744h-.072l-1.136 1.488-.768-.6 1.336-1.76h1.84v4.616H7.38V30H3.492ZM9.936 30.096c-.73 0-1.272-.253-1.624-.76-.352-.506-.528-1.216-.528-2.128 0-.912.176-1.621.528-2.128.352-.506.894-.76 1.624-.76.731 0 1.272.254 1.624.76.352.507.528 1.216.528 2.128 0 .912-.176 1.622-.528 2.128-.352.507-.893.76-1.624.76Zm0-1.016c.32 0 .542-.117.664-.352.123-.234.184-.565.184-.992V26.68c0-.426-.06-.757-.184-.992-.122-.234-.344-.352-.664-.352-.32 0-.54.118-.664.352-.122.235-.184.566-.184.992v1.056c0 .427.062.758.184.992.123.235.344.352.664.352ZM14.733 30.096c-.73 0-1.272-.253-1.624-.76-.352-.506-.528-1.216-.528-2.128 0-.912.176-1.621.528-2.128.352-.506.894-.76 1.624-.76.73 0 1.272.254 1.624.76.352.507.528 1.216.528 2.128 0 .912-.176 1.622-.528 2.128-.352.507-.893.76-1.624.76Zm0-1.016c.32 0 .542-.117.664-.352.123-.234.184-.565.184-.992V26.68c0-.426-.061-.757-.184-.992-.122-.234-.344-.352-.664-.352-.32 0-.541.118-.664.352-.122.235-.184.566-.184.992v1.056c0 .427.062.758.184.992.123.235.344.352.664.352ZM19.53 30.096c-.73 0-1.272-.253-1.624-.76-.352-.506-.528-1.216-.528-2.128 0-.912.176-1.621.528-2.128.352-.506.893-.76 1.624-.76.73 0 1.272.254 1.624.76.352.507.528 1.216.528 2.128 0 .912-.176 1.622-.528 2.128-.352.507-.893.76-1.624.76Zm0-1.016c.32 0 .541-.117.664-.352.123-.234.184-.565.184-.992V26.68c0-.426-.061-.757-.184-.992-.122-.234-.344-.352-.664-.352-.32 0-.541.118-.664.352-.122.235-.184.566-.184.992v1.056c0 .427.062.758.184.992.123.235.344.352.664.352Z" fill="#fff"/></svg>
